X: 385
T:Pentozali
O:Greece
S:Deborah Jones, VIFD Music Book
F: http://www.youtube.com/watch?v=nnFt3bun3HQ
L:1/8
M:2/4
Q:1/4=120
K:Am
|:"G"cc/d/ BA/B/| GG/A/ B/c/d/B/| cc/A/ BG|[1 "Am" AA A/e/A/B/  :|[2 "Am" AA A/e/A|
|:"Am" ec d/e/d | cc/A/ B/c/d/B/| cc/A/ BG|[1 AA A/e/A          :|[2 AA A/c/B/A/  |
|:GGcc          |B>A GG/A/      |BG cB    |[1 AA A/c/B/A/       :|[2 AA AE        |



